X: 39912
T: Thomas Leixlip The Proud
R: waltz
M: 3/4
K: Dmajor
A|:d f/e/d/c/ dAA|Afe f2A|d f/e/d/c/ dAF|GBc d2A|
d f/e/d/c/ dAA|Afe f2A|B c/B/A/G/ A B/A/G/F/|EAc d2A:|
|:ddd d2 f/e/|d/c/d/e/f/g/ afd|gfe fdB|AFA B3/2c/d|
AFF BGG|AFd B/A/G/F/E/D/|AFd B/A/G/F/E/D/|EFA B3/2c/d|
AFF BGG|AFd B/A/G/F/E/D/|gfe fdB|1 ABc d2A:|2 ABc d2||

